X:204
T: Nach den Flitterwochen oder das boese Weib
N: A0248
O: Europa, Mitteleuropa, Deutschland
N: Forster II 1540 No. 69.
R: Romanze, Ballade, Lied
M: 4/2
L: 1/4
K: F
 |  |  | F2F2F2 | A4B2c3BAG | F4z6
c2 | c2d2c2c2 | BAGFG2G2 | F4z2
f2 | e2f2d2g3fe2 | d4c4z2
c2 | c2d2c2c2 | BAGFG2G2 | F4z2
c2 | B2B2A2d2 | c2A2B2c4BA | G4F8

